packages/core/src/svg/ui/binoculars.svg

<svg width="24" height="24" viewBox="0 0 24 24" fill="none" xmlns="http://www.w3.org/2000/svg">
<path d="M21.2722 11.8678L21.2651 11.8578C21.2019 11.7624 21.1346 11.6701 21.0643 11.5797C21.0643 11.5797 16.6752 5.80113 16.6521 5.77001L16.6491 5.76599C16.2967 5.30017 15.7436 5 15.1211 5C14.057 5 13.1946 5.87642 13.1946 6.95765L13.1524 8.62918C13.1524 8.70347 13.0922 8.76371 13.0179 8.76371H10.9819C10.9077 8.76371 10.8474 8.70347 10.8474 8.62918L10.6798 7.01487C10.6798 5.95573 9.82141 5.09838 8.76327 5.09838C8.14385 5.09838 7.5937 5.39253 7.24334 5.84831L2.93651 11.5797C2.86623 11.6701 2.79897 11.7624 2.73572 11.8578L2.72869 11.8678C2.25384 12.5897 1.98278 13.4581 2.00085 14.3907C2.04904 16.764 3.99163 18.6915 6.3649 18.7226C8.83556 18.7547 10.8474 16.762 10.8474 14.2993V12.2393C10.8474 12.1238 10.9408 12.0305 11.0562 12.0305H12.9436C13.0591 12.0305 13.1524 12.1238 13.1524 12.2393V14.2431C13.1524 16.6827 15.103 18.7046 17.5426 18.7226C20.0012 18.7407 22 16.7529 22 14.2993C22 13.4008 21.7309 12.5656 21.2712 11.8678H21.2722ZM6.42514 16.9778C5.01061 16.9778 3.86413 15.8313 3.86413 14.4168C3.86413 13.0023 5.01061 11.8558 6.42514 11.8558C7.83967 11.8558 8.98615 13.0023 8.98615 14.4168C8.98615 15.8313 7.83967 16.9778 6.42514 16.9778ZM17.5767 16.9818C16.1622 16.9818 15.0157 15.8353 15.0157 14.4208C15.0157 13.0063 16.1622 11.8598 17.5767 11.8598C18.9912 11.8598 20.1377 13.0063 20.1377 14.4208C20.1377 15.8353 18.9912 16.9818 17.5767 16.9818Z" fill="currentColor"/>
</svg>

<svg xmlns="http://www.w3.org/2000/svg" viewBox="0 0 24 24"><g fill="none" fill-rule="evenodd"><path d="M0 0h24v24H0z"/><path d="M21.272 11.868l-.007-.01a4.518 4.518 0 00-.2-.278l-4.413-5.81-.003-.004A1.912 1.912 0 0015.121 5c-1.064 0-1.926.876-1.926 1.958l-.043 1.671c0 .074-.06.135-.134.135h-2.036a.135.135 0 01-.135-.135l-.167-1.614a1.916 1.916 0 00-3.437-1.167L2.937 11.58c-.07.09-.138.182-.201.278l-.007.01A4.418 4.418 0 002 14.39a4.438 4.438 0 004.364 4.332 4.423 4.423 0 004.482-4.424v-2.06c0-.115.094-.209.21-.209h1.887c.115 0 .208.094.208.21v2.003c0 2.44 1.951 4.462 4.39 4.48a4.424 4.424 0 003.73-6.855zm-14.847 5.11a2.56 2.56 0 110-5.122 2.56 2.56 0 010 5.122zm11.152.004a2.56 2.56 0 110-5.122 2.56 2.56 0 010 5.122z" fill="currentColor"/></g></svg>
